X: 21213
T: Katy Is Waiting
R: jig
M: 6/8
K: Edorian
d/c/|:BEE cEE|BAF BAF|D3 FED|AdB AGF|
BEE cEE|BEE BAF|ABc dAF|1 FED E2 d/c/:|2 FED E2d||
|:~e3 efg|fed ecA|A2d dcd|ABc dAF|
E2e efg|fed ecA|dcd BA/G/F|1 BA/G/F E2d:|2 BA/G/F E2 d/c/||

